X: 17965
T: Huey Lewis'
R: reel
M: 4/4
K: Emajor
ec||BGBc ~E3c|BGBc deef|fege c2ec|BGBc eBce|
BGBc ~E3c|BGBc ~e3f|fege ceBA|1 GBFB E3B:|2 GBFB E3A||
B~D3 DEED|EAGA Bcef|g~e3 ceBA|Bceg f2fG|
B~D3 DEED|EAGA Bcef|g~e3 ceBA|GBFB E3G|
B~D3 DEED|EAGA Bcef|g~e3 ceBA|Bceg f2gf|
e2fe d2ed|c2ec BEGB|cEAc B~D3|DEED E2||

